X:1
T:Thus art thou blest that fearest God - Mundy
T:#
%%score [ 1 2 3 ]
L:1/8
Q:1/4=132
M:3/2
K:C
V:1 treble nm="Soprano " snm="S"
V:2 treble nm="Alto" snm="A"
V:3 treble-8 nm="Tenor" snm="T"
V:1
 z12 |"^Psalm 128 vv 4-6""^Thus art thou blest that fearest God" C4 G4 A4 | B4 G2 c4 B2 | %3
w: |Thus art thou|blest that fear- est|
 c4 B2 G4 ^F2 | (G4 A4)"^John Mundy\n(?-1630)" G4 |[M:3/2] G8 A4 | B8 z4 | z4 z4 c4 | e4 d2 c4 B2 | %9
w: God, thus art thou|blest * that|fear- est|God,|and|he shall let thee|
 A2 (d2- dc) B2 A4 | z4 B4 d4- | d2 c2 B2 A2 c2 B2 | A8 B4 | c6 (B2 A4 | G6 F2 E4) | D4 G4 E2 F2 | %16
w: see, let * * thee see:|The pro\-|* mis- ed Je- ru- sa-|lem, Je-|ru- sa\- *||lem, And his fe-|
 G4 (F2 E2 D4) | (F6 E2 D4 | E8) z4 | z4 z2 C2 G4- | G2 A2 B2 c2 d2 B2 | A4 F8 | E4 c4 B4 | %23
w: li- ci\- * *||ty.|Thou shalt|* thy child- ren's child- ren|see, thy|child- ren see,|
 z2 A2 B2 c2 d4 | (c4 B2 c2 A4) | B8 z4 | z4 z4 z4 | z4 A4 d4- | d2 e2 d2 c2 B2 A2 | %29
w: To thy great joy's|in\- * * *|crease:||And like\-|* wise grace on Is- ra\-|
 (G2 c2 B2 A2 G2 F2) | E2 F2 G6 A2 |[Q:1/4=130] _B4[Q:1/4=127] (A2[Q:1/4=125] G2[Q:1/4=123] F4 | %32
w: |el, pros- per- i-|ty and * *|
[Q:1/4=119] E4[Q:1/4=115] D6[Q:1/4=112] F2) |[Q:1/4=112] E16 |] %34
w: |peace.|
V:2
 G,4 C4 D4 | E4 C2 G4 ^F2 | G4 E4 D4 | C4 z4 z4 | G,4 C4 D4 |[M:3/2] E4 C2 G4 ^F2 | G4 D4 G4 | %7
w: Thus art thou|blest that fear- est|God, fear- est|God,|thus art thou|blest that fear- est|God, and he|
 F2 E4 D2 C4 | C2 G2 F4 E2 G2 | ^F4 D2 G4 F2 | G8 D4 | G6 F2 A2 G2 | F6 E2 D2 E2- | E2 C2 F4 F4 | %14
w: shall let thee see,|and he shall let thee|see, shall let thee|see: The|pro- mis- ed Je-|ru- sa- lem, pro\-|* mis- ed Je-|
 E6 (D2 C4) | B,6 B,2 C2 D2 | E2 D4 C4 B,2 | A,4 D2 C4 B,2 | C4 G,2 C4 D2 | E2 F2 G2 E2 D4 | %20
w: ru- sa\- *|lem, and his fe-|li- ci- ty, and|his fe- li- ci-|ty. Thou shalt thy|child- ren's child- ren see,|
 (E2 F2) G2 E2 z2 D2 | F2 G2 A4 A,4 | C2 D2 E4 z2 E2 | F4 (G2 E2) D2 (G2 | A4) G6 ^F2 | G4 D4 G4- | %26
w: child\- * ren see, To|thy great joy's, to|thy great joy's, to|thy great * joy's, great|* joy's in-|crease, and like\-|
 G2 A2 G2 F2 E2 (D2 | F2 E2 D2 C2 B,2 A,2) | B,6 (C2 D4) | E4 (D2 C2 B,2 A,2) | C4 E8 | D8 C4 | %32
w: * wise grace on Is- ra\-||el, on *|Is- ra\- * * *|el, pros-|per- i-|
 C8 B,4 | C16 |] %34
w: ty and|peace.|
V:3
 z12 | z12 | z12 | C4 G4 A4 | B4 A2 c4 B2 |[M:3/2][K:treble-8] c6 B2 c2 d2 | G8 E4 | A4 G2 F4 E2 | %8
w: |||Thus art thou|blest that fear- est|God, that fear- est|God, and|he shall let thee|
 C4 F4 A2 G2 | d3 c B2 e2 c2 d2 | G8 z4 | z4 z4 A4 | d6 c2 B2 G2 | A4 F2 (G2 A2 B2 | %14
w: see, and he shall|let thee see, shall let thee|see:|The|pro- mis- ed Je\-|* ru- sa\- * *|
 c4 C2 D2 E2 F2) | G8 A4 | G8 G4 | F2 (D4 E2 F2 G2) | C4 z2 C2 F4 | G2 A2 B2 c4 B2 | %20
w: |lem, and|his fe-|li- ci\- * * *|ty. Thou shalt|thy child- ren's child- ren|
 c2 A2 G2 A2 B2 G2 | d6 D2 F2 G2 | A4 z2 A2 B2 c2 | d4 z4 z2 B2 | c2 d2 e2 (c2 d4) | G8 G4 | %26
w: see, thy child- ren's child- ren|see, To thy great|joy's, to thy great|joy's, to|thy great joy's in\- *|crease, and|
 c6 d2 c2 B2 | A2 (G2 F2 E2 D4) | G6 A2 G2 F2 | (E6 F2 D4) | C4- C2 D2 E2 C2 | (D2 E2 F2 G2 A2 B2 | %32
w: like- wise grace on|Is- ra\- * * *|el, on Is- ra\-||el, * pros- per- i-|ty, and * * * *|
 c4 G8) | C16 |] %34
w: |peace.|

